assets/icon-cabinet.svg

<svg fill="none" height="24" viewBox="0 0 24 24" width="24" xmlns="http://www.w3.org/2000/svg"><path d="m19.5 5c.8284 0 1.5.67157 1.5 1.5v9l-.0078.1533c-.0717.706-.6329 1.2672-1.3389 1.3389l-.1533.0078h-1.3555c.8309.733 1.3555 1.805 1.3555 3h-1c0-1.6569-1.3431-3-3-3h-7c-1.65685 0-3 1.3431-3 3h-1c0-1.195.52463-2.267 1.35547-3h-1.35547l-.15332-.0078c-.70599-.0717-1.26719-.6329-1.33887-1.3389l-.00781-.1533v-9c0-.82843.67157-1.5 1.5-1.5zm-15 1c-.27614 0-.5.22386-.5.5v9c0 .2761.22386.5.5.5h2.5v-5c-.55228 0-1-.4477-1-1v-1c0-.55228.44772-1 1-1v-2zm3.5 10h8v-10h-8zm9-8c.5523 0 1 .44772 1 1v1c0 .5523-.4477 1-1 1v5h2.5c.2761 0 .5-.2239.5-.5v-9c0-.27614-.2239-.5-.5-.5h-2.5zm-5.25 0c.4142 0 .75.33579.75.75v1.5c0 .4142-.3358.75-.75.75s-.75-.3358-.75-.75v-1.5c0-.41421.3358-.75.75-.75z" fill="#000"/></svg>

<svg width="24" height="24" viewBox="0 0 24 24" fill="none" xmlns="http://www.w3.org/2000/svg">
<path d="M19.5 5C20.3284 5 21 5.67157 21 6.5V15.5L20.9922 15.6533C20.9205 16.3593 20.3593 16.9205 19.6533 16.9922L19.5 17H18.1445C18.9754 17.733 19.5 18.805 19.5 20H18.5C18.5 18.3431 17.1569 17 15.5 17H8.5C6.84315 17 5.5 18.3431 5.5 20H4.5C4.5 18.805 5.02463 17.733 5.85547 17H4.5L4.34668 16.9922C3.64069 16.9205 3.07949 16.3593 3.00781 15.6533L3 15.5V6.5C3 5.67157 3.67157 5 4.5 5H19.5ZM4.5 6C4.22386 6 4 6.22386 4 6.5V15.5C4 15.7761 4.22386 16 4.5 16H7V11C6.44772 11 6 10.5523 6 10V9C6 8.44772 6.44772 8 7 8V6H4.5ZM8 16H16V6H8V16ZM17 8C17.5523 8 18 8.44772 18 9V10C18 10.5523 17.5523 11 17 11V16H19.5C19.7761 16 20 15.7761 20 15.5V6.5C20 6.22386 19.7761 6 19.5 6H17V8ZM11.75 8C12.1642 8 12.5 8.33579 12.5 8.75V10.25C12.5 10.6642 12.1642 11 11.75 11C11.3358 11 11 10.6642 11 10.25V8.75C11 8.33579 11.3358 8 11.75 8Z" fill="black"/>
</svg>
